launcher/android/assets/skins/day/svg/infoIcon.svg

<svg enable-background="new 0 0 50.00 50.00" height="50" viewBox="0 0 50 50" width="50" xmlns="http://www.w3.org/2000/svg" xmlns:xlink="http://www.w3.org/1999/xlink"><radialGradient id="a" cx="25" cy="25" gradientUnits="userSpaceOnUse" r="24"><stop offset="0" stop-color="#dbd7fc"/><stop offset=".991379" stop-color="#000eff"/></radialGradient><radialGradient id="b" cx="25" cy="-6.03449" gradientUnits="userSpaceOnUse" r="40"><stop offset="0" stop-color="#fff" stop-opacity=".486275"/><stop offset=".271552" stop-color="#fff1f1" stop-opacity=".486275"/><stop offset="1" stop-color="#0700ff" stop-opacity=".486275"/></radialGradient><radialGradient id="c" cx="25" cy="12.5862" gradientTransform="matrix(-1 0 0 -1 50.000038 25.172382)" gradientUnits="userSpaceOnUse" r="40"><stop offset=".116379" stop-color="#fff" stop-opacity="0"/><stop offset="1" stop-color="#fff" stop-opacity=".513725"/></radialGradient><g stroke-linejoin="round"><ellipse cx="25" cy="25" fill="url(#a)" rx="22.5" ry="22.5" stroke="#000" stroke-width="2"/><g stroke-width=".2"><ellipse cx="25" cy="25" fill="url(#b)" rx="20" ry="20"/><ellipse cx="25" cy="25" fill="url(#c)" rx="20" ry="20"/><path d="m29.0187 13.4208c0 .5167-.0979.9792-.2937 1.3875-.1958.4084-.4594.7615-.7906 1.0594-.3313.2979-.7219.526-1.1719.6844-.45.1583-.9354.2375-1.4563.2375-.4958 0-.9552-.0761-1.3781-.2282-.4229-.152-.7875-.3635-1.0937-.6343-.3063-.2709-.5469-.5906-.7219-.9594-.175-.3687-.2625-.7719-.2625-1.2094 0-.5166.0948-.9791.2844-1.3875.1895-.4083.45-.7614.7812-1.0594.3313-.2979.725-.526 1.1813-.6843.4562-.1584.951-.2375 1.4843-.2375.4959 0 .9521.076 1.3688.2281s.7781.3635 1.0844.6344c.3062.2708.5468.5906.7218.9594.175.3687.2625.7718.2625 1.2093zm-2.0312 26.4c-.2333.0667-.5031.1323-.8094.1969-.3062.0646-.6323.126-.9781.1844-.3458.0583-.7042.1041-1.075.1375-.3708.0333-.7375.05-1.1.05-.875 0-1.6219-.1136-2.2406-.3406-.6188-.2271-1.1292-.5459-1.5313-.9563s-.6979-.899-.8875-1.4656c-.1896-.5667-.2844-1.1896-.2844-1.8688 0-.2875.0167-.6073.05-.9593.0334-.3521.0761-.7198.1282-1.1032.052-.3833.1135-.7739.1843-1.1719.0709-.3979.1459-.7781.225-1.1406.05-.2208.1375-.6281.2625-1.2218.125-.5938.2688-1.275.4313-2.0438.1625-.7687.3344-1.5792.5156-2.4313.1813-.852.3531-1.6624.5156-2.4312.1625-.7687.3063-1.45.4313-2.0437.125-.5938.2125-1.0011.2625-1.2219h6.25l-2.3813 11.2625c-.1041.4541-.2145.9646-.3312 1.5312-.1167.5667-.175 1.0584-.175 1.475 0 .4959.1562.8417.4687 1.0375.3125.1959.6709.2938 1.075.2938.3375 0 .6782-.0365 1.0219-.1094.3438-.0729.6594-.1677.9469-.2844-.1667.7834-.3281 1.5552-.4844 2.3157-.1562.7604-.3198 1.5302-.4906 2.3093z" fill="#fff"/></g></g></svg>

﻿<?xml version="1.0" encoding="utf-8"?>
<!DOCTYPE svg PUBLIC "-//W3C//DTD SVG 1.1//EN" "http://www.w3.org/Graphics/SVG/1.1/DTD/svg11.dtd">
<svg xmlns="http://www.w3.org/2000/svg" xmlns:xlink="http://www.w3.org/1999/xlink" version="1.1" baseProfile="full" width="50" height="50" viewBox="0 0 50.00 50.00" enable-background="new 0 0 50.00 50.00" xml:space="preserve">
	<radialGradient id="SVGID_Fill1_" cx="25" cy="25" r="24" gradientUnits="userSpaceOnUse">
		<stop offset="0" stop-color="#DBD7FC" stop-opacity="1"/>
		<stop offset="0.991379" stop-color="#000EFF" stop-opacity="1"/>
	</radialGradient>
	<ellipse fill="url(#SVGID_Fill1_)" stroke-width="2" stroke-linejoin="round" stroke="#000000" stroke-opacity="1" cx="25" cy="25" rx="22.5" ry="22.5"/>
	<radialGradient id="SVGID_Fill2_" cx="25" cy="-6.03449" r="40" gradientUnits="userSpaceOnUse">
		<stop offset="0" stop-color="#FFFFFF" stop-opacity="0.486275"/>
		<stop offset="0.271552" stop-color="#FFF1F1" stop-opacity="0.486275"/>
		<stop offset="1" stop-color="#0700FF" stop-opacity="0.486275"/>
	</radialGradient>
	<ellipse fill="url(#SVGID_Fill2_)" stroke-width="0.2" stroke-linejoin="round" cx="25" cy="25" rx="20" ry="20"/>
	<radialGradient id="SVGID_Fill3_" cx="25" cy="12.5862" r="40" gradientUnits="userSpaceOnUse" gradientTransform="rotate(180.000000 25.000019 12.586191)">
		<stop offset="0.116379" stop-color="#FFFFFF" stop-opacity="0"/>
		<stop offset="1" stop-color="#FFFFFF" stop-opacity="0.513725"/>
	</radialGradient>
	<ellipse fill="url(#SVGID_Fill3_)" stroke-width="0.2" stroke-linejoin="round" cx="25" cy="25" rx="20" ry="20"/>
	<g>
		<path fill="#FFFFFF" fill-opacity="1" stroke-width="0.2" stroke-linejoin="round" d="M 29.0187,13.4208C 29.0187,13.9375 28.9208,14.4 28.725,14.8083C 28.5292,15.2167 28.2656,15.5698 27.9344,15.8677C 27.6031,16.1656 27.2125,16.3937 26.7625,16.5521C 26.3125,16.7104 25.8271,16.7896 25.3062,16.7896C 24.8104,16.7896 24.351,16.7135 23.9281,16.5614C 23.5052,16.4094 23.1406,16.1979 22.8344,15.9271C 22.5281,15.6562 22.2875,15.3365 22.1125,14.9677C 21.9375,14.599 21.85,14.1958 21.85,13.7583C 21.85,13.2417 21.9448,12.7792 22.1344,12.3708C 22.3239,11.9625 22.5844,11.6094 22.9156,11.3114C 23.2469,11.0135 23.6406,10.7854 24.0969,10.6271C 24.5531,10.4687 25.0479,10.3896 25.5812,10.3896C 26.0771,10.3896 26.5333,10.4656 26.95,10.6177C 27.3667,10.7698 27.7281,10.9812 28.0344,11.2521C 28.3406,11.5229 28.5812,11.8427 28.7562,12.2115C 28.9312,12.5802 29.0187,12.9833 29.0187,13.4208 Z M 26.9875,39.8208C 26.7542,39.8875 26.4844,39.9531 26.1781,40.0177C 25.8719,40.0823 25.5458,40.1437 25.2,40.2021C 24.8542,40.2604 24.4958,40.3062 24.125,40.3396C 23.7542,40.3729 23.3875,40.3896 23.025,40.3896C 22.15,40.3896 21.4031,40.276 20.7844,40.049C 20.1656,39.8219 19.6552,39.5031 19.2531,39.0927C 18.851,38.6823 18.5552,38.1937 18.3656,37.6271C 18.176,37.0604 18.0812,36.4375 18.0812,35.7583C 18.0812,35.4708 18.0979,35.151 18.1312,34.799C 18.1646,34.4469 18.2073,34.0792 18.2594,33.6958C 18.3114,33.3125 18.3729,32.9219 18.4437,32.5239C 18.5146,32.126 18.5896,31.7458 18.6687,31.3833C 18.7187,31.1625 18.8062,30.7552 18.9312,30.1615C 19.0562,29.5677 19.2,28.8865 19.3625,28.1177C 19.525,27.349 19.6969,26.5385 19.8781,25.6864C 20.0594,24.8344 20.2312,24.024 20.3937,23.2552C 20.5562,22.4865 20.7,21.8052 20.825,21.2115C 20.95,20.6177 21.0375,20.2104 21.0875,19.9896L 27.3375,19.9896L 24.9562,31.2521C 24.8521,31.7062 24.7417,32.2167 24.625,32.7833C 24.5083,33.35 24.45,33.8417 24.45,34.2583C 24.45,34.7542 24.6062,35.1 24.9187,35.2958C 25.2312,35.4917 25.5896,35.5896 25.9937,35.5896C 26.3312,35.5896 26.6719,35.5531 27.0156,35.4802C 27.3594,35.4073 27.675,35.3125 27.9625,35.1958C 27.7958,35.9792 27.6344,36.751 27.4781,37.5115C 27.3219,38.2719 27.1583,39.0417 26.9875,39.8208 Z "/>
	</g>
</svg>
